X: 106
T: The humors of Mullinafauna
C: anon.
O: Ireland
B: Francis O'Neill: "The Dance Music of Ireland" (1907) no. 106
R: Double jig
Z: Transcribed by Frank Nordberg - http://www.musicaviva.com
F: http://www.musicaviva.com/abc/tunes/ireland/oneill-1001/oneill-1001-010
6.abc
M: 6/8
L: 1/8
K: D
(d/e/)|fed cAG|ABA {d}cAG|F2D DED|F2A GED|ABA cAG|ABA A2e|fed {f}ecA|ded
d2:|
|:(d/e/)f2 d dcd|f2g agf|e2c cdc|e2f {a}gec|f2g afd|e2f {a}gec|fed ecA|de
d d2:|
W:
W:
W: From Musica Viva - http://www.musicaviva.com
W: the Internet center for free sheet music downloads.


